X:1
T:On a Christmas Morning
T:On a Christmas Morning
T:The Hosanna, 1905
T:Golden Shower, 1862
T:Public Domain Courtesy of the Cyber Hymnal™
C:The Hosanna, 1905
Z:Public Domain
Z:Courtesy of the Cyber Hymnal™
%%score 1 ( 2 3 ) ( 4 5 )
L:1/8
Q:1/4=104
M:4/4
K:Eb
V:1 treble 
V:2 treble 
V:3 treble 
V:4 bass 
V:5 bass 
V:1
 G2 G2 A2 G2 | F3 G E4 x | B2 B2 c2 B2 | A3 B G4 x | E2 E2 F2 G2 | A3 B c4 x | F2 F2 G2 =A2 | %7
w: 1.~Child- ren, can you|tru- ly tell,|Do you know the|sto- ry well,|Ev- ery girl and|ev- ery boy,|Why the an- gels|
w: 2.~Yes, we know the|sto- ry well;|Lis- ten now, and|hear us tell|Ev- ery lit- tle|girl and boy,|Why the an- gels|
w: 3.~Shep- herds sat up-|on the ground,|Flee- cy flocks lay|scat- tered round,|When a bright- ness|filled the sky,|And a song was|
w: 4.~Joy and peace the|an- gels sang,|Far the plea- sant|e- choes rang;|Peace on earth, to|men good will,|Hark! the an- gels|
w: 5.~For a lit- tle|babe this day,|Cra- dled in a|man- ger lay;|Born on earth our|Lord to be,|This the won- dering|
 B3 c d4 x ||"^Refrain" e2 B2 G2 B2 | (e2 B2) (G2 B2) | e2 B2 G2 A2 | F4 E4 |] %12
w: sang for joy|||||
w: sang for joy|||||
w: heard on high|On the Christ- mas|morn- * ing, *|On the Christ- mas|morn- ing?|
w: sing it still|||||
w: an- gels see|||||
V:2
 [EG]2 [EG]2 [EA]2 [EG]2 | [DF]3 [DG] E4 x | [EB]2 [EB]2 [Ec]2 [EB]2 | A3 z B [EG]4 | %4
 E2 E2 [DF]2 [_DG]2 | A3 z B [Ec]4 | F2 F2 [=EG]2 [_E=A]2 | B3 z c [Fd]4 || %8
 [Ee]2 [DB]2 [EG]2 [FB]2 | [Ge]2 [FB]2 [EG]2 [DB]2 | [Ee]2 [DB]2 [EG]2 [EA]2 | [DF]4 E4 |] %12
V:3
 x8 | x4 E4 x | x8 | E2 D2 x5 | E2 E2 x4 | C2 E2 x5 | F2 F2 x4 | D2 F2 x5 || x8 | x8 | x8 | %11
 x4 E4 |] %12
V:4
 [E,B,]2 [E,B,]2 [E,C]2 [E,B,]2 | A,3 z B, [E,G,]4 | [G,B,]2 [G,B,]2 [A,E]2 [G,B,]2 | %3
 [F,C]2 [B,,B,]2 [E,B,]4 x | [E,G,]2 [E,G,]2 [E,A,]2 [E,B,]2 | A,3 z G, A,4 | %6
 [F,=A,]2 [F,A,]2 [F,B,]2 [F,C]2 | B,3 z =A, B,4 || [G,B,]2 [F,B,]2 [E,B,]2 [D,B,]2 | %9
 [C,E,]2 [D,F,]2 [E,G,]2 [F,A,]2 | [G,B,]2 [F,B,]2 [E,B,]2 [C,E,]2 | [B,,A,]4 [E,G,]4 |] %12
V:5
 x8 | B,,2 B,,2 x5 | x8 | x9 | x8 | A,,2 E,2 A,4 x | x8 | B,,2 F,2 B,2 =A,2 x || x8 | x8 | x8 | %11
 x8 |] %12

